packages/foundations/assets/icons/functional/images/transportation/scooter_14_inverted.svg

<svg width="14" height="14" viewBox="0 0 14 14" fill="none" xmlns="http://www.w3.org/2000/svg">
<g clip-path="url(#clip0_2214_6762)">
<path fill-rule="evenodd" clip-rule="evenodd" d="M11.3224 8.69312C11.9989 8.69312 12.5474 9.24157 12.5474 9.91812C12.5474 10.5947 11.9989 11.1431 11.3224 11.1431C10.6458 11.1431 10.0974 10.5947 10.0974 9.91812C10.0974 9.24157 10.6458 8.69312 11.3224 8.69312ZM5.37887 9.65395C5.5979 10.5026 4.85892 11.1431 4.18237 11.1431C3.50583 11.1431 2.80371 10.5601 2.98588 9.65395C2.98588 9.65395 2.67309 9.65395 2.04751 9.65395C1.74418 9.65395 1.49387 9.42696 1.45715 9.13358L1.45251 8.82561C1.45251 7.51144 2.56078 6.36393 3.77927 6.36759L5.51111 6.36393L5.19947 5.33242L3.44737 5.33312C3.10349 5.33312 2.85237 5.05355 2.85237 4.73812C2.85237 4.42268 3.10349 4.14312 3.44737 4.14312H5.2672C5.70356 4.14312 6.154 4.48276 6.30508 4.88396L7.38837 8.46352H8.10517L10.5524 5.99742V4.42361C10.5524 4.24575 10.462 4.05249 10.2922 4.05249L9.00942 4.04693C8.68081 4.04693 8.41442 3.78054 8.41442 3.45193C8.41442 3.1486 8.67122 2.85693 9.00942 2.85693H10.2922C11.0754 2.85693 11.6871 3.51332 11.7388 4.31363L11.7424 6.24312C11.7424 6.37395 11.6993 6.50037 11.6209 6.60337L8.77562 9.47804C8.68252 9.57186 8.5204 9.65395 8.35326 9.65395C8.18613 9.65395 5.37887 9.65395 5.37887 9.65395Z" fill="#1A1C1F"/>
</g>
<defs>
<clipPath id="clip0_2214_6762">
<rect width="14" height="14" fill="white"/>
</clipPath>
</defs>
</svg>

<svg xmlns="http://www.w3.org/2000/svg" width="14" height="14" fill="none"><g clip-path="url(#a)"><path fill="#1A1C1F" fill-rule="evenodd" d="M11.322 8.693a1.225 1.225 0 1 1 0 2.45 1.225 1.225 0 0 1 0-2.45m-5.943.961c.219.849-.52 1.49-1.197 1.49-.676 0-1.378-.584-1.196-1.49h-.938a.595.595 0 0 1-.59-.52l-.005-.308c0-1.315 1.108-2.462 2.326-2.458l1.732-.004L5.2 5.332l-1.752.001a.594.594 0 0 1-.595-.595c0-.315.251-.595.595-.595h1.82c.437 0 .887.34 1.038.741l1.083 3.58h.717l2.447-2.467V4.424c0-.178-.09-.372-.26-.372L9.01 4.047a.595.595 0 0 1-.595-.595c0-.303.257-.595.595-.595h1.283c.783 0 1.395.656 1.447 1.457l.003 1.93c0 .13-.043.256-.121.36L8.776 9.477a.63.63 0 0 1-.423.176z" clip-rule="evenodd"/></g><defs><clipPath id="a"><path fill="#fff" d="M0 0h14v14H0z"/></clipPath></defs></svg>
